X: 1
T: Sí Bheag Sí Mhór
C: Turlough O'Carolan
Z: ceolachan
S: https://thesession.org/tunes/449#setting13324
R: waltz
M: 3/4
L: 1/8
K: Dmaj
f3 e d2|d2 e2 d2|B4 A2|F4 A2|BA Bc d2|e4 de|f2 f2 e2|d4 f2|
B4 e2|A4 d2|F2 F2 E2|D4 f2|B4 e2|A4 dc|d6-|d4:|
f3 e d2|ed ef a2|b4 a2|f4 ed|e2 e2 a2|f4 e2|d4 B2|B4 A2|
F4 E2|D4 f2|B4 e2|A4 a2|ba gf ed|e3 fe|d1
|de:|A)||D D Bm D G A D D G F#m Bm D G A D D||
B)||D A G D A D D Bm D D G F#m G A D D||

